X: 30284
T: Old Maids Of Galway, The
R: reel
M: 4/4
K: Bdorian
|:A|BFF/F/F BFAF|EFDE FBBA|B4 BFAF|EFDE FBdc|
BFF/F/F BFAF|EFDE FBBA|B3c dcBA|E/E/EFA B3:|
|:c|d2cd B3c|dBcA Bee2|d2cd B2AF|E2DE FBBc|
d2cd B3c|dBcA Bee2|efed B2AF|E2DE FBB:|

